source/img/Ellipse.svg

<svg width="32" height="32" viewBox="0 0 32 32" version="1.1" xmlns="http://www.w3.org/2000/svg" xmlns:xlink="http://www.w3.org/1999/xlink">
<title>Ellipse</title>
<desc>Created using Figma</desc>
<g id="Canvas" transform="translate(-93 108)">
<g id="Ellipse">
<use xlink:href="#path0_stroke" transform="translate(94.4644 -107)" fill="#FFFFFF" style="mix-blend-mode:hard-light"/>
</g>
</g>
<defs>
<path id="path0_stroke" d="M 30.0356 14.7899C 30.0356 14.4541 30.0248 14.1208 30.0035 13.7902L 29.0055 13.8546C 29.0255 14.1637 29.0356 14.4756 29.0356 14.7899L 30.0356 14.7899ZM 29.7455 11.8087C 29.6151 11.1486 29.4424 10.5036 29.2302 9.87694L 28.283 10.1977C 28.4813 10.7831 28.6426 11.3856 28.7644 12.0024L 29.7455 11.8087ZM 28.466 8.02994C 28.17 7.42956 27.8359 6.8515 27.4668 6.29892L 26.6353 6.85438C 26.9803 7.37088 27.2925 7.91112 27.5691 8.4721L 28.466 8.02994ZM 26.2508 4.71289C 25.8115 4.21123 25.3399 3.7386 24.8393 3.29826L 24.1788 4.04911C 24.6468 4.46079 25.0877 4.90267 25.4985 5.3717L 26.2508 4.71289ZM 23.2558 2.07878C 22.7039 1.70844 22.1265 1.37316 21.5267 1.07614L 21.0829 1.97229C 21.6432 2.24976 22.1828 2.56305 22.6987 2.90917L 23.2558 2.07878ZM 19.6807 0.30896C 19.0541 0.095839 18.4093 -0.0776513 17.7492 -0.20853L 17.5547 0.772375C 18.1713 0.894622 18.7735 1.05666 19.3587 1.25569L 19.6807 0.30896ZM 15.7676 -0.467721C 15.437 -0.489133 15.1037 -0.5 14.7678 -0.5L 14.7678 0.5C 15.0821 0.5 15.3939 0.510169 15.703 0.530188L 15.7676 -0.467721ZM 14.7678 -0.5C 14.4319 -0.5 14.0986 -0.489133 13.768 -0.467721L 13.8326 0.530188C 14.1417 0.510169 14.4535 0.5 14.7678 0.5L 14.7678 -0.5ZM 11.7864 -0.20853C 11.1263 -0.077651 10.4815 0.0958393 9.85491 0.308961L 10.1769 1.25569C 10.7621 1.05666 11.3643 0.894623 11.9809 0.772375L 11.7864 -0.20853ZM 8.00893 1.07614C 7.40914 1.37316 6.83168 1.70844 6.27975 2.07878L 6.83693 2.90917C 7.35278 2.56305 7.89236 2.24976 8.4527 1.97229L 8.00893 1.07614ZM 4.69629 3.29826C 4.1957 3.7386 3.72413 4.21123 3.28482 4.71289L 4.03713 5.3717C 4.44786 4.90267 4.88876 4.46079 5.35677 4.04911L 4.69629 3.29826ZM 2.0688 6.29892C 1.69969 6.8515 1.36555 7.42956 1.06958 8.02994L 1.96652 8.4721C 2.24307 7.91112 2.55533 7.37088 2.90035 6.85438L 2.0688 6.29892ZM 0.305409 9.87694C 0.0931941 10.5036 -0.0795473 11.1486 -0.209853 11.8087L 0.771218 12.0024C 0.892965 11.3856 1.05434 10.7831 1.25258 10.1977L 0.305409 9.87694ZM -0.46787 13.7902C -0.489183 14.1208 -0.5 14.4541 -0.5 14.7899L 0.5 14.7899C 0.5 14.4756 0.510125 14.1637 0.530057 13.8546L -0.46787 13.7902ZM -0.5 14.7899C -0.5 15.1257 -0.489183 15.4591 -0.46787 15.7896L 0.530057 15.7253C 0.510125 15.4161 0.5 15.1042 0.5 14.7899L -0.5 14.7899ZM -0.209853 17.7711C -0.0795472 18.4313 0.0931943 19.0762 0.305409 19.7029L 1.25258 19.3822C 1.05434 18.7967 0.892965 18.1943 0.771218 17.5774L -0.209853 17.7711ZM 1.06958 21.5499C 1.36555 22.1503 1.69969 22.7283 2.0688 23.2809L 2.90035 22.7255C 2.55533 22.2089 2.24307 21.6687 1.96652 21.1077L 1.06958 21.5499ZM 3.28482 24.8669C 3.72413 25.3686 4.1957 25.8412 4.69629 26.2816L 5.35677 25.5307C 4.88876 25.119 4.44786 24.6772 4.03713 24.2081L 3.28482 24.8669ZM 6.27975 27.5011C 6.83168 27.8714 7.40914 28.2067 8.00893 28.5037L 8.4527 27.6075C 7.89236 27.3301 7.35278 27.0168 6.83693 26.6707L 6.27975 27.5011ZM 9.85491 29.2709C 10.4815 29.484 11.1263 29.6575 11.7864 29.7884L 11.9809 28.8075C 11.3643 28.6852 10.7621 28.5232 10.1769 28.3241L 9.85491 29.2709ZM 13.768 30.0476C 14.0986 30.069 14.4319 30.0798 14.7678 30.0798L 14.7678 29.0798C 14.4535 29.0798 14.1417 29.0697 13.8326 29.0496L 13.768 30.0476ZM 14.7678 30.0798C 15.1037 30.0798 15.437 30.069 15.7676 30.0476L 15.703 29.0496C 15.3939 29.0697 15.0821 29.0798 14.7678 29.0798L 14.7678 30.0798ZM 17.7492 29.7884C 18.4093 29.6575 19.0541 29.484 19.6807 29.2709L 19.3587 28.3241C 18.7735 28.5232 18.1713 28.6852 17.5547 28.8075L 17.7492 29.7884ZM 21.5267 28.5037C 22.1265 28.2067 22.7039 27.8714 23.2558 27.5011L 22.6987 26.6707C 22.1828 27.0168 21.6432 27.3301 21.0829 27.6075L 21.5267 28.5037ZM 24.8393 26.2816C 25.3399 25.8412 25.8115 25.3686 26.2508 24.8669L 25.4985 24.2081C 25.0877 24.6772 24.6468 25.119 24.1788 25.5307L 24.8393 26.2816ZM 27.4668 23.2809C 27.8359 22.7283 28.17 22.1503 28.466 21.5499L 27.5691 21.1077C 27.2925 21.6687 26.9803 22.2089 26.6353 22.7255L 27.4668 23.2809ZM 29.2302 19.7029C 29.4424 19.0762 29.6151 18.4313 29.7455 17.7711L 28.7644 17.5774C 28.6426 18.1943 28.4813 18.7967 28.283 19.3822L 29.2302 19.7029ZM 30.0035 15.7896C 30.0248 15.4591 30.0356 15.1257 30.0356 14.7899L 29.0356 14.7899C 29.0356 15.1042 29.0255 15.4161 29.0055 15.7253L 30.0035 15.7896Z"/>
</defs>
</svg>

<svg width="32" height="32" xmlns="http://www.w3.org/2000/svg" xmlns:xlink="http://www.w3.org/1999/xlink"><use xlink:href="#path0_stroke" transform="translate(1.464 1)" fill="#FFF" style="mix-blend-mode:hard-light"/><defs><path id="path0_stroke" d="M30.036 14.79c0-.336-.011-.67-.033-1l-.997.065c.02.309.03.62.03.935h1zm-.29-2.981c-.13-.66-.304-1.305-.516-1.932l-.947.32c.198.586.36 1.189.481 1.805l.982-.193zm-1.28-3.78c-.296-.6-.63-1.178-1-1.73l-.83.555c.344.517.657 1.057.933 1.618l.897-.442zm-2.215-3.316a15.37 15.37 0 0 0-1.412-1.415l-.66.751c.468.412.909.854 1.32 1.323l.752-.66zm-2.995-2.634c-.552-.37-1.13-.706-1.73-1.003l-.443.896c.56.278 1.1.591 1.616.937l.557-.83zM19.68.309a15.143 15.143 0 0 0-1.932-.518l-.194.981c.616.123 1.218.285 1.804.484l.322-.947zm-3.913-.777c-.331-.021-.664-.032-1-.032v1c.314 0 .626.01.935.03l.065-.998zm-1-.032c-.336 0-.67.01-1 .032l.065.998c.309-.02.62-.03.935-.03v-1zm-2.982.291c-.66.131-1.304.305-1.931.518l.322.947A14.144 14.144 0 0 1 11.98.772l-.195-.98zM8.01 1.076c-.6.297-1.177.632-1.73 1.003l.558.83c.516-.346 1.055-.66 1.616-.937l-.444-.896zM4.696 3.298c-.5.44-.972.913-1.411 1.415l.752.659c.41-.47.852-.911 1.32-1.323l-.66-.75zm-2.627 3a15.28 15.28 0 0 0-1 1.732l.898.442c.276-.56.588-1.101.933-1.618L2.07 6.3zM.305 9.878a15.198 15.198 0 0 0-.515 1.932l.981.193c.122-.616.283-1.219.482-1.804l-.948-.321zm-.773 3.913c-.021.33-.032.664-.032 1h1c0-.314.01-.626.03-.935l-.998-.065zm-.032 1c0 .336.01.67.032 1l.998-.065c-.02-.309-.03-.62-.03-.935h-1zm.29 2.981c.13.66.303 1.305.515 1.932l.948-.32a14.198 14.198 0 0 1-.482-1.806l-.98.194zm1.28 3.779c.296.6.63 1.178.999 1.73l.831-.555a14.287 14.287 0 0 1-.933-1.617l-.897.442zm2.215 3.317c.44.502.91.974 1.411 1.415l.66-.751a14.364 14.364 0 0 1-1.319-1.323l-.752.659zM6.28 27.5c.552.37 1.13.706 1.729 1.003l.444-.896c-.56-.278-1.1-.591-1.616-.937l-.557.83zm3.575 1.77a15.15 15.15 0 0 0 1.931.517l.195-.98a14.141 14.141 0 0 1-1.804-.484l-.322.947zm3.913.777c.33.021.664.032 1 .032v-1c-.315 0-.626-.01-.935-.03l-.065.998zm1 .032c.336 0 .669-.011 1-.032l-.065-.998c-.31.02-.62.03-.935.03v1zm2.981-.292a15.15 15.15 0 0 0 1.932-.517l-.322-.947c-.586.2-1.188.361-1.804.483l.194.981zm3.778-1.284c.6-.297 1.177-.633 1.729-1.003l-.557-.83c-.516.346-1.056.66-1.616.937l.444.896zm3.312-2.222c.5-.44.973-.913 1.412-1.415l-.753-.659c-.41.47-.851.911-1.32 1.323l.661.75zm2.628-3.001c.369-.553.703-1.13.999-1.731l-.897-.442a14.298 14.298 0 0 1-.934 1.617l.832.556zm1.763-3.578c.212-.627.385-1.272.515-1.932l-.98-.194c-.122.617-.284 1.22-.482 1.805l.947.32zm.773-3.913c.022-.33.033-.664.033-1h-1c0 .314-.01.626-.03.935l.997.065z"/></defs></svg>
